MODULE Rob2_TeachingData
    TASK PERS jointtarget jWireCut4:=[[40,90,-90,0,0,0],[9E+09,9E+09,9E+09,9E+09,9E+09,9E+09]];
    TASK PERS jointtarget jWireCut3:=[[71.6634,25.7787,-10.5655,-0.758909,0,-1.80901],[9E+09,9E+09,9E+09,9E+09,9E+09,9E+09]];
    TASK PERS jointtarget jWireCut2:=[[39.707,4.47399,13.2114,-42.6249,45.8696,68.4274],[9E+09,9E+09,9E+09,9E+09,9E+09,9E+09]];
    TASK PERS jointtarget jWireCut1:=[[39.0569,22.4635,30.9158,-87.8027,28.7441,122.67],[9E+09,9E+09,9E+09,9E+09,9E+09,9E+09]];
    TASK PERS jointtarget jWireCut0:=[[34.9225,27.2566,23.4573,-85.6831,26.3554,116.604],[9E+09,9E+09,9E+09,9E+09,9E+09,9E+09]];   
    !!!!!!!!!!!!! NozzleClean !!!!!!!!!!!!!!!
    TASK PERS jointtarget jWorkingHome:=[[40,90,-90,0,0,0],[9E+09,9E+09,9E+09,9E+09,9E+09,9E+09]];
    TASK PERS jointtarget jNozzle03:=[[47.4962,11.9976,34.5052,1.62755,-42.4403,108.965],[9E+09,9E+09,9E+09,9E+09,9E+09,9E+09]];
    TASK PERS jointtarget jNozzle02:=[[141.474,15.6442,43.8956,42.6918,-54.3317,-18.7529],[9E+09,9E+09,9E+09,9E+09,9E+09,9E+09]];
    TASK PERS jointtarget jNozzle01:=[[144.553,28.3584,17.9992,-87.8045,-53.7116,40.4812],[9E+09,9E+09,9E+09,9E+09,9E+09,9E+09]];
    TASK PERS jointtarget jNozzleCleanEntry:=[[153.639,61.6513,-13.2843,-129.717,-63.3699,48.052],[9E+09,9E+09,9E+09,9E+09,9E+09,9E+09]];
    TASK PERS jointtarget jNozzleClean:=[[154.825,69.3304,-15.3044,-126.608,-59.2867,43.5055],[9E+09,9E+09,9E+09,9E+09,9E+09,9E+09]];
    TASK PERS jointtarget jSprayEntry:=[[153.069,68.1497,-26.5664,-132.292,-68.1364,53.3632],[9E+09,9E+09,9E+09,9E+09,9E+09,9E+09]];
    TASK PERS jointtarget jSpray:=[[153.094,73.5971,-29.2621,-131.419,-66.2863,51.1528],[9E+09,9E+09,9E+09,9E+09,9E+09,9E+09]];      
ENDMODULE