MODULE Rob1_TeachingData
    !!!!!...WireCut..............................
    TASK PERS jointtarget jWireCut4:=[[40,90,-90,0,0,0],[9E+09,9E+09,9E+09,9E+09,9E+09,9E+09]];
    TASK PERS jointtarget jWireCut3:=[[71.6634,25.7787,-10.5655,-0.758909,0,-1.80901],[9E+09,9E+09,9E+09,9E+09,9E+09,9E+09]];
    TASK PERS jointtarget jWireCut2:=[[39.707,4.47399,13.2114,-42.6249,45.8696,68.4274],[9E+09,9E+09,9E+09,9E+09,9E+09,9E+09]];
    TASK PERS jointtarget jWireCut1:=[[39.7077,23.0399,30.4536,-87.5281,29.1211,122.951],[9E+09,9E+09,9E+09,9E+09,9E+09,9E+09]];
    TASK PERS jointtarget jWireCut0:=[[35.5563,27.9348,23.3911,-86.4839,26.7048,118.047],[9E+09,9E+09,9E+09,9E+09,9E+09,9E+09]];    
    !!!!!!!!!!!!! NozzleClean !!!!!!!!!!!!!!!
    TASK PERS jointtarget jWorkingHome:=[[40,90,-90,0,0,0],[9E+09,9E+09,9E+09,9E+09,9E+09,9E+09]];
    TASK PERS jointtarget jNozzle02:=[[90,10,10,0,5,0],[9E+09,9E+09,9E+09,9E+09,9E+09,9E+09]];
    TASK PERS jointtarget jNozzle01:=[[155,2.9158,31.7138,89.8553,40.6631,-129.077],[9E+09,9E+09,9E+09,9E+09,9E+09,9E+09]];
    TASK PERS jointtarget jNozzleCleanEntry:=[[165.547,58.8704,-4.79395,49.9054,61.9265,-138.965],[9E+09,9E+09,9E+09,9E+09,9E+09,9E+09]];
    TASK PERS jointtarget jNozzleClean:=[[166.501,66.4885,-7.37661,52.7736,58.3685,-143.119],[9E+09,9E+09,9E+09,9E+09,9E+09,9E+09]];
    TASK PERS jointtarget jSprayEntry:=[[162.972,63.139,-15.1176,47.1666,67.2217,-136.083],[9E+09,9E+09,9E+09,9E+09,9E+09,9E+09]];
    TASK PERS jointtarget jSpray:=[[162.972,68.3852,-17.3106,48.1628,65.1649,-138.55],[9E+09,9E+09,9E+09,9E+09,9E+09,9E+09]];         
ENDMODULE